src/assets/img/providers-white/spearhead_studios.svg

<svg width="128" height="32" viewBox="0 0 128 32" fill="none" xmlns="http://www.w3.org/2000/svg">
<g clip-path="url(#clip0_4132_6983)">
<path fill-rule="evenodd" clip-rule="evenodd" d="M20.9676 26.5303L11.6343 2.48852L2.24362 26.5303L6.56959 30.7874H16.7155L20.9676 26.5303ZM1.2832 26.7435L11.6343 0.224609L21.9281 26.7353L17.0603 31.6159H6.23303L1.2832 26.7435ZM5.10854 21.7239C5.10854 21.7239 9.54943 19.6568 10.9531 20.5673C12.9503 21.8731 7.25844 26.7018 5.77017 27.9644C5.613 28.0977 5.50271 28.1913 5.45331 28.2367L3.3683 26.1451L5.10854 21.7239ZM12.053 5.64648C12.053 5.64648 10.9449 9.00952 9.93519 12.0117C8.52331 16.1786 8.95017 17.3598 10.8546 16.7692C11.3206 16.6265 11.7642 16.4681 12.1827 16.3187C14.2186 15.5918 15.6591 15.0775 16.1902 17.6223C16.8715 21.1658 13.6045 24.5534 10.7971 27.0716C9.57399 28.1625 8.16211 29.2043 7.30022 29.8359H16.3873L20.0155 26.1283L12.053 5.64648ZM27.7352 19.7935C28.4911 20.1172 29.3087 20.2868 30.1879 20.2868C30.774 20.2868 31.3448 20.1943 31.8384 19.9631C32.3783 19.7627 32.8256 19.5007 33.2112 19.1461C33.6123 18.7916 33.9208 18.36 34.1368 17.8976C34.3527 17.4352 34.4607 16.9111 34.4607 16.3716C34.4607 15.8321 34.3836 15.3543 34.2139 14.9689C34.0442 14.5682 33.8437 14.2291 33.5352 13.9363C33.2267 13.6433 32.9027 13.3968 32.5326 13.1964C32.1469 12.996 31.7767 12.811 31.3756 12.6569L29.8331 12.0403C29.7612 12.0084 29.6892 11.9774 29.6178 11.9468L29.6178 11.9467C29.4136 11.859 29.2139 11.7732 29.031 11.6704C28.7842 11.5317 28.5682 11.3775 28.3831 11.208C28.2134 11.023 28.0592 10.838 27.9512 10.6068C27.8432 10.3756 27.7815 10.1136 27.7815 9.82071C27.7815 9.48162 27.8587 9.18877 27.982 8.92671C28.1209 8.64928 28.2906 8.41808 28.5219 8.21768C28.7533 8.01728 29.0156 7.86317 29.3086 7.75528C29.6171 7.66277 29.9565 7.60111 30.3113 7.60111C30.8666 7.60111 31.3756 7.69362 31.7921 7.8786C32.2395 8.06351 32.6251 8.32557 32.9799 8.66465L33.8437 7.6782C33.381 7.2466 32.8565 6.93831 32.332 6.70711C31.7921 6.47591 31.1134 6.36802 30.3267 6.36802C29.7714 6.36802 29.247 6.44505 28.7687 6.63002C28.2751 6.815 27.8741 7.0462 27.5193 7.35448C27.1645 7.6782 26.8868 8.03271 26.6863 8.44888C26.4858 8.86505 26.3778 9.34288 26.3778 9.82071C26.3778 10.3294 26.455 10.761 26.6092 11.1155C26.7635 11.5008 26.964 11.8091 27.2262 12.0865C27.5039 12.364 27.797 12.5798 28.1363 12.7802C28.4911 12.9806 28.8459 13.1501 29.2161 13.2888L30.8049 13.9054C31.1288 14.0287 31.4219 14.1675 31.6996 14.3061C31.9772 14.4449 32.224 14.6299 32.4246 14.8148C32.6251 14.9998 32.7948 15.2156 32.9182 15.4776C33.0416 15.7551 33.1033 16.0479 33.1033 16.3871C33.1033 16.7724 33.0416 17.0961 32.9027 17.4352C32.7639 17.7743 32.5788 18.0672 32.332 18.2984C32.0698 18.545 31.7767 18.73 31.4219 18.8687C31.0517 19.0074 30.6661 19.0845 30.2342 19.0845C29.5246 19.0845 28.8613 18.9303 28.2597 18.6221C27.6735 18.3138 27.1645 17.8822 26.7635 17.3735L25.7454 18.2367C26.3007 18.9303 26.9794 19.4698 27.7352 19.7935ZM36.2809 6.55329H40.5691C41.0164 6.55329 41.4483 6.58409 41.8648 6.66118C42.2813 6.73826 42.6361 6.84615 42.96 7.00026C43.5616 7.32398 44.0706 7.78638 44.4872 8.40295C44.9036 9.01952 45.1041 9.77478 45.1041 10.6533C45.1041 11.162 45.0425 11.6553 44.9036 12.0869C44.7648 12.5184 44.5951 12.9038 44.3637 13.2583C44.1323 13.5974 43.8855 13.8903 43.5925 14.1369C43.2994 14.3681 42.9909 14.5531 42.6515 14.6764C42.3738 14.7689 42.0653 14.8305 41.7106 14.8768C41.3866 14.9076 40.9855 14.923 40.492 14.923H37.7V20.0404H36.2962L36.2809 6.55329ZM40.492 13.7361C40.8468 13.7361 41.1398 13.7361 41.3712 13.7207C41.5871 13.7053 41.8185 13.6591 42.0654 13.5666C42.2813 13.4895 42.4973 13.3662 42.6824 13.1967C42.8675 13.0271 43.0372 12.8113 43.1914 12.5801C43.3457 12.3335 43.4536 12.056 43.5462 11.7477C43.6388 11.4395 43.6696 11.1004 43.6696 10.7304C43.6696 10.0676 43.5462 9.51272 43.284 9.09655C43.0217 8.68038 42.7132 8.35672 42.3122 8.14089C41.8802 7.89426 41.2786 7.77095 40.5382 7.77095H37.6691V13.7516L40.492 13.7361ZM55.1924 18.8536H46.8628L46.8782 20.0559H55.1924V18.8536ZM55.1924 6.55329H46.8782V7.75558H55.1924V6.55329ZM54.8685 12.5184H46.8782V13.7361H54.8685V12.5184ZM62.2571 5.92104L68.2886 20.0402H66.7457L62.2571 9.31212L57.7221 20.0402H56.1795L62.2571 5.92104ZM69.692 20.0402H71.096L71.1114 7.72452H74.5206C74.8754 7.72452 75.1834 7.73995 75.492 7.80161C75.7851 7.84784 76.0629 7.94035 76.3097 8.07904C76.7263 8.32567 77.0657 8.64938 77.2971 9.08098C77.5286 9.51252 77.652 10.052 77.652 10.684C77.652 11.0231 77.6057 11.3468 77.5286 11.6551C77.4514 11.9942 77.3434 12.2716 77.2046 12.5182C77.0503 12.7649 76.896 12.9653 76.6954 13.1502C76.4949 13.3198 76.2788 13.4431 76.0474 13.5202C75.7697 13.6126 75.5074 13.6589 75.276 13.6743C75.0137 13.6897 74.6903 13.6897 74.2891 13.6897V14.892C74.5587 15.3228 74.828 15.7498 75.0974 16.1768L75.0976 16.1771L75.1001 16.181C75.3695 16.6081 75.639 17.0352 75.9086 17.4661C76.218 17.9752 76.5381 18.4736 76.8594 18.9739L76.8598 18.9745C77.0832 19.3222 77.3072 19.6709 77.5286 20.0248H79.2097C78.936 19.5919 78.6623 19.1664 78.3887 18.7411L78.3885 18.7407L78.3879 18.7398C78.1065 18.3024 77.8252 17.8651 77.544 17.4199C77.1462 16.7907 76.7406 16.1694 76.3327 15.5447L76.3326 15.5446L76.3325 15.5446L76.3324 15.5444C76.1708 15.2969 76.0088 15.0488 75.8468 14.7995C76.248 14.7687 76.6183 14.6454 77.004 14.445C77.4051 14.2446 77.7446 13.9672 78.0371 13.6126C78.3457 13.2581 78.5771 12.8111 78.7777 12.3179C78.9783 11.8246 79.0708 11.2697 79.0708 10.6532C79.0708 9.80544 78.8703 9.05012 78.4691 8.41818C78.068 7.77075 77.5286 7.30835 76.896 6.9847C76.5411 6.8151 76.1709 6.69178 75.7697 6.63012C75.3686 6.56847 74.9371 6.53767 74.5051 6.53767H69.692V20.0402ZM93.0309 18.8535H101.361V20.0404H93.0463L93.0309 18.8535ZM93.0463 6.55329H101.361V7.75558H93.0463V6.55329ZM101.037 12.5181H93.0463V13.7359H101.037V12.5181ZM89.4366 12.5184V6.55329H90.8405V20.0404H89.4366V13.7361H82.1714V20.0404H80.7834V6.55329H82.1714V12.5184H89.4366ZM108.487 5.92104L114.518 20.0402H112.976L108.487 9.31212L103.967 20.0402H102.425L108.487 5.92104ZM119.732 6.55329H115.922L115.938 20.0096H119.778C120.226 20.0096 120.627 20.0096 120.982 19.9788C121.367 19.9633 121.691 19.9017 122.015 19.8092C122.709 19.6243 123.388 19.3314 123.99 18.946C124.607 18.5607 125.146 18.0675 125.578 17.4972C126.026 16.9268 126.381 16.2795 126.627 15.5704C126.874 14.8614 126.998 14.0752 126.998 13.2429C126.998 12.3643 126.859 11.5166 126.581 10.7921C126.303 10.0676 125.918 9.38946 125.439 8.83455C124.961 8.26421 124.391 7.80181 123.743 7.44729C123.095 7.09278 122.401 6.84615 121.661 6.70741C121.321 6.64575 120.997 6.59952 120.642 6.58409L120.431 6.57507C120.158 6.56319 119.93 6.55329 119.732 6.55329ZM120.781 18.8227C120.442 18.8382 120.087 18.8536 119.701 18.8536H117.341V7.75558H119.701C119.966 7.75558 120.259 7.76955 120.566 7.78423L120.611 7.78638C120.951 7.81723 121.244 7.84804 121.506 7.90969C122.093 8.04844 122.663 8.26421 123.157 8.57249C123.666 8.86535 124.098 9.26615 124.453 9.72855C124.807 10.1909 125.069 10.7304 125.27 11.3316C125.47 11.9327 125.563 12.6109 125.563 13.3354C125.563 13.9982 125.47 14.6301 125.285 15.2005C125.1 15.7708 124.838 16.2948 124.499 16.7573C124.175 17.2351 123.758 17.6359 123.28 17.9596C122.802 18.2832 122.277 18.5299 121.707 18.6686C121.414 18.7457 121.105 18.7919 120.781 18.8227ZM96.7206 31.644C96.5177 31.6325 96.3166 31.598 96.1211 31.5411C95.8926 31.4857 95.6743 31.3941 95.4748 31.2698C95.2828 31.1561 95.1068 31.0177 94.9508 30.8582C94.8126 30.6909 94.7051 30.501 94.6326 30.2969C94.5743 30.137 94.5366 29.9704 94.52 29.8011C94.5057 29.6174 94.5057 29.4329 94.52 29.2492V25.18H95.1846V29.2866V29.6608C95.1965 29.7871 95.2188 29.9121 95.2503 30.035C95.36 30.34 95.5714 30.5979 95.8497 30.7647C95.9994 30.862 96.164 30.9346 96.3366 30.9798C96.4668 31.024 96.6023 31.0523 96.7394 31.064V31.644H96.7206ZM97.0577 31.0733C97.1886 31.0633 97.3183 31.0349 97.4417 30.9892C97.6131 30.9404 97.7771 30.868 97.9286 30.774C98.0668 30.6886 98.1903 30.5812 98.2937 30.4559C98.3943 30.3357 98.4674 30.1953 98.5091 30.0443C98.544 29.9249 98.5691 29.8029 98.584 29.6795V29.3053V25.208H99.2303V29.2492V29.8011C99.2211 29.9707 99.1863 30.1379 99.1268 30.2969C99.0514 30.5017 98.9406 30.6916 98.7994 30.8582C98.656 31.0325 98.4811 31.1784 98.284 31.2885C98.0823 31.413 97.8606 31.5016 97.6286 31.5504C97.444 31.6096 97.2514 31.6443 97.0577 31.6533V31.0733ZM87.6469 25.7601H89.3509V31.5693H90.016V25.7601H91.7109V25.1895H87.6469V25.7601ZM102.049 25.1893H103.846C103.983 25.1806 104.121 25.1806 104.258 25.1893C104.419 25.2043 104.578 25.2294 104.736 25.2641C105.066 25.3298 105.382 25.4499 105.672 25.6196C105.975 25.787 106.246 26.009 106.468 26.2744C106.695 26.5571 106.878 26.8725 107.011 27.2099C107.137 27.5838 107.199 27.9756 107.198 28.3698C107.199 28.7449 107.139 29.1177 107.021 29.4737C106.91 29.8116 106.742 30.128 106.525 30.4091C106.32 30.6761 106.07 30.9042 105.785 31.0827C105.497 31.2706 105.181 31.4097 104.848 31.4943C104.689 31.5375 104.526 31.5657 104.361 31.5785H103.79H101.917L102.049 25.1893ZM103.837 31.0078C104.005 31.0226 104.174 31.0226 104.342 31.0078C104.489 31.0035 104.634 30.9783 104.773 30.933C105.039 30.8609 105.29 30.7404 105.513 30.5775C105.733 30.4223 105.925 30.2328 106.084 30.0162C106.249 29.7958 106.376 29.5491 106.459 29.2866C106.542 29.0007 106.586 28.7049 106.59 28.4073C106.59 28.0909 106.546 27.776 106.459 27.4718C106.373 27.2029 106.243 26.9501 106.075 26.7234C105.902 26.5089 105.697 26.3226 105.466 26.1715C105.219 26.0321 104.954 25.9252 104.679 25.8535C104.54 25.8277 104.399 25.809 104.258 25.7973H102.713V31.0359H103.837V31.0078ZM110.682 25.1895H110.018V31.5693H110.682V25.1895ZM82.8806 31.6439C82.4817 31.6478 82.0863 31.5682 81.7194 31.41C81.3503 31.2502 81.028 30.999 80.7834 30.6803L81.2605 30.2874C81.4468 30.5314 81.6828 30.7324 81.9537 30.8768C82.2423 31.0276 82.564 31.1047 82.8903 31.1013C83.0817 31.1037 83.2714 31.072 83.452 31.0078C83.604 30.9418 83.7434 30.85 83.864 30.7364C83.9783 30.6235 84.0703 30.4903 84.1354 30.3436C84.2028 30.1868 84.2377 30.0183 84.2383 29.8478C84.2406 29.7021 84.2085 29.5579 84.1451 29.4268C84.0874 29.3044 84.008 29.1934 83.9108 29.0994C83.8046 29.0088 83.688 28.9303 83.5646 28.8655L83.1428 28.6878L82.3937 28.3978C82.2206 28.3262 82.052 28.245 81.888 28.1546C81.5663 27.981 81.3126 27.7042 81.1668 27.3688C81.0828 27.1777 81.044 26.9694 81.0548 26.7608C81.0594 26.5426 81.104 26.327 81.1857 26.1247C81.2754 25.9252 81.4103 25.7492 81.5788 25.6102C81.7588 25.4607 81.9611 25.3407 82.1783 25.2547C82.4126 25.1712 82.66 25.13 82.9085 25.1331C83.228 25.1265 83.5457 25.1804 83.8451 25.2921C84.1063 25.4 84.3468 25.5519 84.5571 25.7411L84.1634 26.1995C84.0011 26.0431 83.8108 25.9192 83.6017 25.8347C83.38 25.7402 83.1406 25.6955 82.8994 25.7037C82.7423 25.701 82.5863 25.7296 82.4406 25.7879C82.3017 25.8364 82.1743 25.9128 82.0663 26.0124C81.9588 26.1034 81.8754 26.2189 81.8228 26.3492C81.7606 26.4774 81.7286 26.6182 81.7291 26.7608C81.7257 26.8906 81.7548 27.0191 81.8131 27.135C81.864 27.2406 81.9337 27.3358 82.0194 27.4156C82.12 27.4948 82.2263 27.5667 82.3377 27.6307C82.4588 27.6946 82.584 27.7508 82.712 27.7991L83.4331 28.0891C83.6154 28.167 83.7937 28.2544 83.9668 28.3511C84.3183 28.5362 84.5977 28.8322 84.7628 29.193C84.8468 29.4042 84.8885 29.6299 84.8846 29.8571C84.8828 30.1048 84.832 30.3496 84.7348 30.5774C84.6303 30.7968 84.484 30.9939 84.304 31.1574C84.1194 31.3265 83.9028 31.4569 83.6674 31.541C83.4103 31.6058 83.1463 31.6403 82.8806 31.6439ZM115.673 25.9002C115.934 25.7818 116.212 25.709 116.497 25.685V25.0957C116.139 25.1178 115.788 25.2 115.458 25.3389C114.671 25.6758 114.044 26.3021 113.707 27.0882C113.534 27.4951 113.445 27.9325 113.445 28.3744C113.445 28.8164 113.534 29.2539 113.707 29.6607C113.864 30.0479 114.1 30.3983 114.399 30.6897C114.699 30.9884 115.056 31.2238 115.449 31.382C115.784 31.5125 116.138 31.5914 116.497 31.6158V31.0452C116.213 31.0255 115.934 30.9559 115.673 30.8394C115.359 30.7037 115.076 30.5065 114.84 30.2594C114.607 30.0099 114.426 29.7176 114.306 29.3988C114.174 29.0718 114.107 28.7223 114.109 28.3698C114.114 27.6775 114.374 27.0112 114.84 26.4988C115.07 26.2404 115.355 26.036 115.673 25.9002ZM116.881 25.6849V25.1236C117.248 25.1457 117.609 25.2278 117.949 25.3668C118.557 25.6052 119.078 26.021 119.446 26.5599C119.814 27.0989 120.01 27.7361 120.01 28.3883C120.01 29.0406 119.814 29.6778 119.446 30.2167C119.078 30.7557 118.557 31.1715 117.949 31.4099C117.603 31.5404 117.241 31.6193 116.872 31.6437V31.0731C117.16 31.0389 117.443 30.9698 117.714 30.8673C119.868 30.1189 119.906 26.8916 117.714 25.9C117.452 25.7794 117.17 25.7066 116.881 25.6849ZM123.735 31.4099C124.099 31.5681 124.491 31.6478 124.887 31.6438C125.165 31.6417 125.442 31.6071 125.711 31.5409C125.947 31.4568 126.163 31.3264 126.348 31.1573C126.525 30.9911 126.671 30.7947 126.779 30.5773C126.869 30.3479 126.917 30.1037 126.919 29.857C126.927 29.6294 126.886 29.4027 126.798 29.1929C126.717 29.0131 126.606 28.8485 126.47 28.7064C126.335 28.5656 126.181 28.4458 126.011 28.351C125.835 28.2525 125.654 28.165 125.468 28.089L124.747 27.799C124.622 27.7507 124.499 27.6945 124.382 27.6306C124.27 27.5666 124.164 27.4947 124.063 27.4155C123.974 27.3365 123.901 27.2413 123.848 27.1349C123.791 27.0117 123.761 26.8777 123.761 26.742C123.761 26.6063 123.791 26.4722 123.848 26.3491C123.901 26.2188 123.984 26.1033 124.091 26.0123C124.199 25.9127 124.327 25.8363 124.466 25.7878C124.611 25.7295 124.767 25.7009 124.925 25.7036C125.162 25.6991 125.398 25.7437 125.618 25.8346C125.83 25.9189 126.023 26.0427 126.189 26.1994L126.582 25.741C126.373 25.5518 126.131 25.3999 125.87 25.292C125.571 25.181 125.253 25.1271 124.934 25.133C124.685 25.1291 124.438 25.1703 124.203 25.2546C123.986 25.3392 123.783 25.4593 123.605 25.6101C123.441 25.7537 123.307 25.9286 123.211 26.1246C123.129 26.3269 123.085 26.5425 123.08 26.7607C123.07 26.9694 123.108 27.1776 123.193 27.3687C123.338 27.7041 123.591 27.9809 123.913 28.1545C124.077 28.2467 124.245 28.328 124.419 28.3977L125.168 28.6877L125.59 28.8654C125.714 28.9302 125.83 29.0087 125.936 29.0993C126.033 29.1934 126.113 29.3043 126.17 29.4267C126.234 29.5578 126.266 29.702 126.264 29.8477C126.263 30.0182 126.228 30.1868 126.161 30.3435C126.092 30.4882 126.001 30.6209 125.889 30.7363C125.767 30.8479 125.628 30.9394 125.477 31.0077C125.294 31.0721 125.101 31.1037 124.906 31.1012C124.58 31.1062 124.258 31.029 123.97 30.8767C123.696 30.7324 123.457 30.5315 123.267 30.2874L122.799 30.6802C123.044 30.9989 123.366 31.2501 123.735 31.4099Z" fill="white"/>
</g>
<defs>
<clipPath id="clip0_4132_6983">
<rect width="126.286" height="32" fill="white" transform="translate(0.857117 0.000976562)"/>
</clipPath>
</defs>
</svg>

<svg xmlns="http://www.w3.org/2000/svg" width="128" height="32" fill="none"><g clip-path="url(#a)"><path fill="#fff" fill-rule="evenodd" d="M20.968 26.53 11.634 2.49 2.244 26.53l4.326 4.257h10.145l4.253-4.257Zm-19.685.213L11.634.226l10.294 26.51-4.868 4.88H6.233l-4.95-4.871Zm3.826-5.02s4.44-2.066 5.844-1.156c1.997 1.306-3.695 6.135-5.183 7.397a15.26 15.26 0 0 0-.317.273l-2.085-2.092 1.74-4.421Zm6.944-16.077s-1.108 3.364-2.118 6.366c-1.412 4.167-.985 5.348.92 4.757.466-.142.91-.3 1.328-.45 2.036-.727 3.476-1.241 4.007 1.303.681 3.544-2.586 6.931-5.393 9.45-1.223 1.09-2.635 2.132-3.497 2.764h9.087l3.628-3.708-7.962-20.482Zm15.682 14.148a6.169 6.169 0 0 0 2.453.493c.586 0 1.157-.093 1.65-.324.54-.2.988-.462 1.373-.817a3.82 3.82 0 0 0 .926-1.248c.216-.463.324-.987.324-1.526 0-.54-.077-1.018-.247-1.403-.17-.4-.37-.74-.679-1.033a4.68 4.68 0 0 0-1.002-.74c-.386-.2-.756-.385-1.157-.54l-1.543-.616a18.49 18.49 0 0 0-.215-.093 6.17 6.17 0 0 1-.587-.277 3.475 3.475 0 0 1-.648-.462 2.385 2.385 0 0 1-.432-.601 1.838 1.838 0 0 1-.17-.786c0-.34.078-.632.201-.894.139-.278.309-.509.54-.71.231-.2.494-.354.787-.462a3.5 3.5 0 0 1 1.002-.154c.556 0 1.065.093 1.481.278.447.185.833.447 1.188.786l.864-.987a5.362 5.362 0 0 0-1.512-.97c-.54-.232-1.219-.34-2.005-.34-.556 0-1.08.077-1.558.262a3.973 3.973 0 0 0-1.25.724 3.56 3.56 0 0 0-.833 1.095 3.19 3.19 0 0 0-.308 1.372c0 .508.077.94.231 1.295.154.385.355.693.617.97.278.278.571.494.91.694.355.2.71.37 1.08.509l1.589.616c.324.124.617.263.895.401.277.139.524.324.725.509.2.185.37.4.493.663.124.277.185.57.185.91 0 .384-.061.708-.2 1.047-.14.34-.324.632-.571.863a2.76 2.76 0 0 1-.91.57 3.32 3.32 0 0 1-1.188.216c-.71 0-1.373-.154-1.974-.462a4.696 4.696 0 0 1-1.497-1.248l-1.018.863c.556.693 1.234 1.233 1.99 1.557Zm8.546-13.24h4.288c.447 0 .88.03 1.296.107a4.35 4.35 0 0 1 1.095.34c.602.323 1.11.785 1.527 1.402.417.617.617 1.372.617 2.25 0 .509-.062 1.002-.2 1.434a4.787 4.787 0 0 1-.54 1.171c-.232.34-.478.632-.771.879a3.384 3.384 0 0 1-.942.54 5.037 5.037 0 0 1-.94.2c-.324.03-.725.046-1.219.046H37.7v5.117h-1.404l-.015-13.487Zm4.211 7.182c.355 0 .648 0 .88-.015.215-.016.447-.062.693-.154.216-.078.432-.2.617-.37a3.39 3.39 0 0 0 .51-.617c.154-.246.262-.524.354-.832.093-.308.124-.648.124-1.018 0-.662-.124-1.217-.386-1.633-.262-.417-.57-.74-.972-.956-.432-.247-1.033-.37-1.774-.37H37.67v5.98l2.823-.015Zm14.7 5.118h-8.33l.016 1.202h8.314v-1.202Zm0-12.3h-8.314v1.202h8.314V6.553Zm-.324 5.964h-7.99v1.218h7.99v-1.218Zm7.39-6.597 6.03 14.12h-1.542L62.257 9.311 57.722 20.04H56.18l6.078-14.119Zm7.434 14.12h1.404l.015-12.316h3.41c.354 0 .662.015.971.077.293.046.57.138.818.277.416.247.756.57.987 1.002.232.432.355.971.355 1.603 0 .34-.046.663-.123.971a3.15 3.15 0 0 1-.324.863 2.947 2.947 0 0 1-.51.632c-.2.17-.416.293-.648.37-.277.093-.54.139-.771.154-.262.016-.586.016-.987.016v1.202l.808 1.285.003.004c.27.427.539.854.809 1.285.309.51.63 1.008.95 1.508.224.348.448.697.67 1.05h1.68c-.273-.432-.547-.858-.82-1.283l-.001-.001a187.2 187.2 0 0 1-.844-1.32c-.398-.63-.803-1.25-1.211-1.875l-.486-.745c.401-.031.771-.155 1.157-.355.401-.2.74-.478 1.033-.832.309-.355.54-.802.74-1.295.201-.493.294-1.048.294-1.665 0-.848-.2-1.603-.602-2.235a3.893 3.893 0 0 0-1.573-1.433 3.999 3.999 0 0 0-1.126-.355 8.418 8.418 0 0 0-1.265-.092h-4.813V20.04Zm23.339-1.188h8.33v1.187h-8.315l-.015-1.186Zm.015-12.3h8.315v1.203h-8.315V6.553Zm7.991 5.965h-7.99v1.218h7.99v-1.218Zm-11.6 0V6.553h1.404V20.04h-1.404v-6.304H82.17v6.304h-1.388V6.553h1.388v5.965h7.266Zm19.05-6.597 6.031 14.12h-1.542l-4.489-10.729-4.52 10.728h-1.542l6.062-14.119Zm11.245.632h-3.81l.016 13.457h3.84c.448 0 .849 0 1.204-.031a4.265 4.265 0 0 0 1.033-.17 7.062 7.062 0 0 0 1.975-.863 5.942 5.942 0 0 0 1.588-1.449 6.628 6.628 0 0 0 1.049-1.927 7.076 7.076 0 0 0 .371-2.327c0-.879-.139-1.726-.417-2.45-.278-.725-.663-1.404-1.142-1.958a5.877 5.877 0 0 0-1.696-1.388 6.995 6.995 0 0 0-2.082-.74 7.371 7.371 0 0 0-1.019-.123l-.211-.009a16.982 16.982 0 0 0-.699-.022Zm1.049 12.27c-.339.015-.694.03-1.08.03h-2.36V7.757h2.36c.265 0 .558.014.865.028l.045.002c.34.031.633.062.895.124a5.531 5.531 0 0 1 1.651.662c.509.293.941.694 1.296 1.157.354.462.616 1.001.817 1.603.2.6.293 1.279.293 2.003 0 .663-.093 1.295-.278 1.865a5.483 5.483 0 0 1-.786 1.557 4.526 4.526 0 0 1-1.219 1.203 4.847 4.847 0 0 1-1.573.709 5.794 5.794 0 0 1-.926.154Zm-24.06 12.821a2.69 2.69 0 0 1-.6-.103 2.205 2.205 0 0 1-.646-.271 2.551 2.551 0 0 1-.524-.412 1.857 1.857 0 0 1-.318-.561 2.024 2.024 0 0 1-.113-.496 3.555 3.555 0 0 1 0-.552V25.18h.665v4.481c.011.126.034.251.065.374.11.305.321.563.6.73.15.097.314.17.487.215.13.044.265.072.402.084v.58h-.018Zm.337-.57c.13-.01.26-.04.384-.085.171-.049.335-.121.487-.215.138-.085.261-.193.365-.318.1-.12.173-.26.215-.412.035-.12.06-.241.075-.364v-4.472h.646v4.593c-.009.17-.044.337-.103.496a1.864 1.864 0 0 1-.328.561c-.143.174-.318.32-.515.43a2.052 2.052 0 0 1-.655.262c-.185.06-.378.094-.571.103v-.58Zm-9.411-5.314h1.704v5.81h.665v-5.81h1.695v-.57h-4.064v.57Zm14.402-.57h1.797c.137-.01.275-.01.412 0 .161.014.32.04.478.074.33.066.646.186.936.356.303.167.574.389.796.654.227.283.41.598.543.936a3.602 3.602 0 0 1 .01 2.264 3.13 3.13 0 0 1-.496.935 2.82 2.82 0 0 1-.74.674 3.12 3.12 0 0 1-1.424.495h-2.444l.132-6.389Zm1.788 5.818c.168.015.337.015.505 0 .147-.005.292-.03.431-.075.266-.072.517-.193.74-.355.22-.156.412-.345.571-.562a2.45 2.45 0 0 0 .375-.73c.083-.285.127-.581.131-.879 0-.316-.044-.631-.131-.935a2.575 2.575 0 0 0-.384-.749 2.636 2.636 0 0 0-.609-.551 3.292 3.292 0 0 0-.787-.319 4.225 4.225 0 0 0-.421-.056h-1.545v5.239h1.124v-.028Zm6.845-5.819h-.664v6.38h.664v-6.38Zm-27.801 6.455a2.862 2.862 0 0 1-1.162-.234 2.364 2.364 0 0 1-.936-.73l.477-.393c.187.244.423.445.694.59.288.15.61.228.936.224.192.003.381-.029.562-.093.152-.066.291-.158.412-.272.114-.113.206-.246.271-.392.068-.157.103-.326.103-.496a.933.933 0 0 0-.093-.421 1.12 1.12 0 0 0-.234-.328 1.882 1.882 0 0 0-.346-.233l-.422-.178-.75-.29a5.03 5.03 0 0 1-.505-.243 1.631 1.631 0 0 1-.721-.786 1.34 1.34 0 0 1-.112-.608 1.8 1.8 0 0 1 .13-.636c.09-.2.225-.376.394-.515.18-.15.382-.27.6-.355.234-.084.481-.125.73-.122.319-.006.637.047.936.16.261.107.502.259.712.448l-.394.459a1.76 1.76 0 0 0-.561-.365 1.647 1.647 0 0 0-.703-.131 1.18 1.18 0 0 0-.458.084 1.075 1.075 0 0 0-.375.224.865.865 0 0 0-.243.337.935.935 0 0 0-.094.412.787.787 0 0 0 .084.374c.051.106.12.2.206.28.101.08.207.152.319.216.12.064.246.12.374.168l.721.29c.182.078.36.165.534.262.351.185.63.481.796.842.084.211.125.437.122.664a1.87 1.87 0 0 1-.15.72 1.878 1.878 0 0 1-1.067.964c-.258.065-.522.1-.787.103Zm32.792-5.744a2.5 2.5 0 0 1 .824-.215v-.59a3.183 3.183 0 0 0-1.039.244 3.33 3.33 0 0 0-1.751 1.75 3.287 3.287 0 0 0 0 2.572c.157.387.393.737.692 1.029.3.298.657.534 1.05.692.335.13.689.21 1.048.234v-.57a2.435 2.435 0 0 1-.824-.207 2.55 2.55 0 0 1-.833-.58 2.604 2.604 0 0 1-.534-.86 2.708 2.708 0 0 1-.197-1.03 2.81 2.81 0 0 1 .731-1.87c.23-.259.515-.463.833-.599Zm1.208-.215v-.561c.367.022.728.104 1.068.243a3.248 3.248 0 0 1 2.061 3.021 3.241 3.241 0 0 1-2.061 3.022 3.75 3.75 0 0 1-1.077.234v-.57c.288-.035.571-.104.842-.207 2.154-.748 2.192-3.975 0-4.967a2.426 2.426 0 0 0-.833-.215Zm6.854 5.725c.364.158.756.238 1.152.234.278-.002.555-.037.824-.103a1.878 1.878 0 0 0 1.068-.964c.09-.23.138-.473.14-.72a1.574 1.574 0 0 0-.121-.664 1.734 1.734 0 0 0-.328-.487 1.954 1.954 0 0 0-.459-.355 4.928 4.928 0 0 0-.543-.262l-.721-.29a3.078 3.078 0 0 1-.365-.168 2.635 2.635 0 0 1-.319-.215.93.93 0 0 1-.215-.281.936.936 0 0 1 0-.786.873.873 0 0 1 .243-.337c.108-.1.236-.176.375-.224.145-.058.301-.087.459-.084.237-.005.473.04.693.13a1.8 1.8 0 0 1 .571.365l.393-.458a2.465 2.465 0 0 0-.712-.449 2.556 2.556 0 0 0-.936-.159 2.067 2.067 0 0 0-.731.122c-.217.084-.42.204-.598.355a1.647 1.647 0 0 0-.394.515 1.803 1.803 0 0 0-.131.636c-.01.208.028.417.113.608.145.335.398.612.72.785.164.093.332.174.506.244l.749.29.422.177c.124.065.24.144.346.234.097.094.177.205.234.328a.93.93 0 0 1 .094.42 1.28 1.28 0 0 1-.103.496c-.069.145-.16.278-.272.393a1.567 1.567 0 0 1-.412.272 1.655 1.655 0 0 1-.571.093 1.939 1.939 0 0 1-.936-.224 2.175 2.175 0 0 1-.703-.59l-.468.393c.245.319.567.57.936.73Z" clip-rule="evenodd"/></g><defs><clipPath id="a"><path fill="#fff" d="M.857.001h126.286v32H.857z"/></clipPath></defs></svg>
